X: 32433
T: Piper's Whim, The
R: slip jig
M: 9/8
K: Gmajor
|:c|B3 GBG dBG|B/c/dB gdB efg|B3 GBG dBG|A/B/cA fAB c2:|
c|B/c/dB gdB gdB|B/c/dB gdB efg|B/c/dB gdB gdB|B/c/dB fAB c2 c|
B/c/dB gdB gdB|B/c/dB gdB efg|bag agf efg|B/c/dB cAF G2||

